**kern
*staff1
!!pagebreak:original
*I"P1
*clefG2
*k[b-e-]
*M3/4
8ff\L
8cc\J
=1
2ee-\
8dd\L
8a\J
=2
2cc\
8b-/L
8a/J
=3
4g/
4cc\
4cc\
=4
4cc\
4r
8ee-\L
8bn\J
=5
2dd\
8cc/L
8g/J
=6
2b-\
8a/L
8g/J
=7
4f/
4ff\
4ff\
=8
4ff\
4r
=
*-
